;FLAVOR:Marlin
;TIME:24326
;Filament used: 22.3374m
;Layer height: 0.2
;MINX:60.404
;MINY:60.404
;MINZ:0.2
;MAXX:289.595
;MAXY:289.596
;MAXZ:8
;Generated with Creality Slicer 4.8.2-177
M140 S60
M105
M190 S60
M104 S200
M105
M109 S200
M82 ;absolute extrusion mode
M201 X500.00 Y500.00 Z100.00 E5000.00 ;Setup machine max acceleration
M203 X500.00 Y500.00 Z10.00 E50.00 ;Setup machine max feedrate
M204 P500.00 R1000.00 T500.00 ;Setup Print/Retract/Travel acceleration
M205 X8.00 Y8.00 Z0.40 E5.00 ;Setup Jerk
M220 S100 ;Reset Feedrate
M221 S100 ;Reset Flowrate

G28 ;Home

G92 E0 ;Reset Extruder
G1 Z2.0 F3000 ;Move Z Axis up
G1 X10.1 Y20 Z0.28 F5000.0 ;Move to start position
G1 X10.1 Y200.0 Z0.28 F1500.0 E15 ;Draw the first line
G1 X10.4 Y200.0 Z0.28 F5000.0 ;Move to side a little
G1 X10.4 Y20 Z0.28 F1500.0 E30 ;Draw the second line
G92 E0 ;Reset Extruder
G1 Z2.0 F3000 ;Move Z Axis up

G92 E0
G92 E0
G1 F3600 E-8
;LAYER_COUNT:40
;LAYER:0
M107
G0 F6000 X64.277 Y63.934 Z0.2
;TYPE:SKIRT
G1 F3600 E0
G1 F1200 X65.022 Y63.283 E0.03291
G1 X65.288 Y63.071 E0.04422
G1 X65.697 Y62.76 E0.06131
G1 X66.477 Y62.24 E0.09249
G1 X67.299 Y61.789 E0.12367
G1 X67.772 Y61.568 E0.14104
G1 X68.156 Y61.4 E0.15498
G1 X69.03 Y61.061 E0.18616
G1 X69.931 Y60.798 E0.21738
G1 X70.922 Y60.601 E0.25098
G1 X71.306 Y60.543 E0.2639
G1 X71.797 Y60.48 E0.28036
G1 X72.687 Y60.418 E0.31004
G1 X73.123 Y60.407 E0.32454
G1 X73.424 Y60.404 E0.33455
G1 X276.46 Y60.406 E7.08756
G1 X277.183 Y60.417 E7.11161
G1 X278.12 Y60.472 E7.14283
G1 X278.239 Y60.484 E7.1468
G1 X278.767 Y60.55 E7.1645
G1 X279.047 Y60.592 E7.17392
G1 X279.967 Y60.77 E7.20509
G1 X280.87 Y61.027 E7.23631
G1 X281.587 Y61.292 E7.26174
G1 X282.037 Y61.479 E7.27795
G1 X282.884 Y61.881 E7.30913
G1 X283.694 Y62.354 E7.34033
G1 X284.267 Y62.748 E7.36346
G1 X284.634 Y63.018 E7.37861
G1 X285.365 Y63.605 E7.40979
G1 X286.043 Y64.253 E7.44098
G1 X286.711 Y65.014 E7.47466
G1 X286.921 Y65.277 E7.48586
G1 X287.232 Y65.686 E7.50295
G1 X287.753 Y66.466 E7.53414
G1 X288.206 Y67.288 E7.56536
G1 X288.438 Y67.785 E7.5836
G1 X288.605 Y68.168 E7.5975
G1 X288.943 Y69.043 E7.6287
G1 X289.205 Y69.944 E7.65991
G1 X289.403 Y70.948 E7.69394
G1 X289.466 Y71.372 E7.7082
G1 X289.577 Y72.572 E7.74828
G1 X289.586 Y72.809 E7.75617
G1 X289.595 Y73.243 E7.77061
G1 X289.595 Y276.292 E14.52405
G1 X289.584 Y277.155 E14.55275
G1 X289.533 Y278.069 E14.5832
G1 X289.52 Y278.202 E14.58764
G1 X289.456 Y278.726 E14.6052
G1 X289.415 Y279.006 E14.61461
G1 X289.24 Y279.927 E14.6458
G1 X288.986 Y280.83 E14.67699
G1 X288.732 Y281.529 E14.70173
G1 X288.589 Y281.879 E14.71431
G1 X288.543 Y281.989 E14.71827
G1 X288.145 Y282.838 E14.74946
G1 X287.676 Y283.65 E14.78065
G1 X287.246 Y284.276 E14.80591
G1 X286.973 Y284.646 E14.8212
G1 X286.385 Y285.376 E14.85238
G1 X285.736 Y286.054 E14.88359
G1 X284.986 Y286.711 E14.91676
G1 X284.723 Y286.921 E14.92795
G1 X284.276 Y287.26 E14.94661
G1 X283.494 Y287.777 E14.97779
G1 X282.67 Y288.226 E15.009
G1 X282.228 Y288.432 E15.02522
G1 X281.844 Y288.6 E15.03916
G1 X280.97 Y288.939 E15.07034
G1 X280.069 Y289.202 E15.10156
G1 X279.078 Y289.399 E15.13516
G1 X278.694 Y289.457 E15.14808
G1 X278.203 Y289.52 E15.16454
G1 X277.313 Y289.582 E15.19422
G1 X276.877 Y289.593 E15.20872
G1 X276.576 Y289.596 E15.21874
G1 X73.54 Y289.594 E21.97174
G1 X72.817 Y289.583 E21.99579
G1 X71.88 Y289.528 E22.02701
G1 X71.761 Y289.516 E22.03099
G1 X71.228 Y289.449 E22.04885
G1 X70.949 Y289.407 E22.05824
G1 X70.028 Y289.228 E22.08944
G1 X69.126 Y288.972 E22.12063
G1 X68.477 Y288.734 E22.14362
G1 X68.076 Y288.57 E22.15803
G1 X67.965 Y288.523 E22.16204
G1 X67.118 Y288.121 E22.19322
G1 X66.308 Y287.648 E22.22442
G1 X65.727 Y287.248 E22.24788
G1 X65.358 Y286.976 E22.26313
G1 X64.628 Y286.388 E22.29431
G1 X63.95 Y285.74 E22.3255
G1 X63.289 Y284.986 E22.35885
G1 X63.079 Y284.723 E22.37004
G1 X62.768 Y284.314 E22.38713
G1 X62.247 Y283.534 E22.41833
G1 X61.794 Y282.712 E22.44955
G1 X61.558 Y282.205 E22.46815
G1 X61.391 Y281.821 E22.48207
G1 X61.054 Y280.946 E22.51326
G1 X60.792 Y280.045 E22.54447
G1 X60.595 Y279.035 E22.5787
G1 X60.531 Y278.6 E22.59332
G1 X60.42 Y277.355 E22.63489
G1 X60.406 Y276.849 E22.65173
G1 X60.404 Y276.526 E22.66247
G1 X60.406 Y73.541 E29.41378
G1 X60.417 Y72.817 E29.43786
G1 X60.476 Y71.837 E29.47052
G1 X60.489 Y71.713 E29.47466
G1 X60.541 Y71.293 E29.48874
G1 X60.578 Y71.036 E29.49738
G1 X60.751 Y70.114 E29.52858
G1 X61.002 Y69.21 E29.55978
G1 X61.229 Y68.577 E29.58215
G1 X61.403 Y68.14 E29.59779
G1 X61.45 Y68.027 E29.60186
G1 X61.847 Y67.177 E29.63307
G1 X62.315 Y66.364 E29.66427
G1 X62.767 Y65.705 E29.69085
G1 X63.038 Y65.339 E29.70599
G1 X63.627 Y64.61 E29.73716
G1 X64.277 Y63.934 E29.76836
G0 F6000 X64.578 Y64.199
G1 F1200 X65.271 Y63.596 E29.79891
G1 X65.537 Y63.384 E29.81022
G1 X65.933 Y63.083 E29.82677
G1 X66.699 Y62.574 E29.85736
G1 X67.507 Y62.132 E29.88799
G1 X67.932 Y61.935 E29.90357
G1 X68.316 Y61.767 E29.91751
G1 X69.175 Y61.435 E29.94814
G1 X70.059 Y61.178 E29.97876
G1 X70.982 Y60.997 E30.01004
G1 X71.366 Y60.939 E30.02296
G1 X71.841 Y60.878 E30.03889
G1 X72.699 Y60.818 E30.06749
G1 X73.128 Y60.807 E30.08177
G1 X73.424 Y60.804 E30.09161
G1 X276.454 Y60.806 E36.84442
G1 X277.177 Y60.817 E36.86847
G1 X278.08 Y60.869 E36.89855
G1 X278.199 Y60.881 E36.90253
G1 X278.707 Y60.945 E36.91956
G1 X278.987 Y60.987 E36.92898
G1 X279.891 Y61.163 E36.95961
G1 X280.776 Y61.417 E36.99023
G1 X281.435 Y61.662 E37.01362
G1 X281.881 Y61.847 E37.02967
G1 X282.712 Y62.242 E37.06028
G1 X283.506 Y62.709 E37.09092
G1 X284.03 Y63.07 E37.11208
G1 X284.397 Y63.34 E37.12723
G1 X285.114 Y63.917 E37.15784
G1 X285.778 Y64.554 E37.18845
G1 X286.398 Y65.264 E37.2198
G1 X286.608 Y65.527 E37.23099
G1 X286.91 Y65.923 E37.24756
G1 X287.42 Y66.688 E37.27814
G1 X287.863 Y67.496 E37.30879
G1 X288.072 Y67.945 E37.32526
G1 X288.239 Y68.328 E37.33915
G1 X288.569 Y69.187 E37.36976
G1 X288.825 Y70.072 E37.4004
G1 X289.007 Y71.007 E37.43208
G1 X289.07 Y71.431 E37.44634
G1 X289.177 Y72.587 E37.48495
G1 X289.186 Y72.824 E37.49284
G1 X289.195 Y73.248 E37.50695
G1 X289.195 Y276.292 E44.26022
G1 X289.184 Y277.149 E44.28873
G1 X289.135 Y278.03 E44.31807
G1 X289.122 Y278.163 E44.32252
G1 X289.06 Y278.668 E44.33944
G1 X289.019 Y278.948 E44.34885
G1 X288.846 Y279.852 E44.37947
G1 X288.596 Y280.738 E44.41008
G1 X288.361 Y281.379 E44.43279
G1 X288.22 Y281.725 E44.44522
G1 X288.174 Y281.835 E44.44918
G1 X287.783 Y282.668 E44.47979
G1 X287.32 Y283.464 E44.51042
G1 X286.925 Y284.038 E44.53359
G1 X286.652 Y284.408 E44.54889
G1 X286.073 Y285.125 E44.57954
G1 X285.435 Y285.788 E44.61014
G1 X284.736 Y286.398 E44.641
G1 X284.473 Y286.608 E44.65219
G1 X284.041 Y286.936 E44.67023
G1 X283.273 Y287.443 E44.70084
G1 X282.068 Y288.065 E44.74594
G1 X281.684 Y288.233 E44.75988
G1 X280.825 Y288.565 E44.79051
G1 X279.941 Y288.822 E44.82113
G1 X279.018 Y289.003 E44.85242
G1 X278.634 Y289.061 E44.86533
G1 X278.159 Y289.122 E44.88126
G1 X277.301 Y289.182 E44.90987
G1 X276.872 Y289.193 E44.92414
G1 X276.576 Y289.196 E44.93399
G1 X73.546 Y289.194 E51.68679
G1 X72.823 Y289.183 E51.71084
G1 X71.92 Y289.131 E51.74093
G1 X71.801 Y289.119 E51.74491
G1 X71.287 Y289.054 E51.76214
G1 X71.008 Y289.012 E51.77152
G1 X70.104 Y288.835 E51.80216
G1 X69.22 Y288.581 E51.83275
G1 X68.626 Y288.363 E51.8538
G1 X68.232 Y288.202 E51.86795
G1 X68.121 Y288.155 E51.87196
G1 X67.29 Y287.76 E51.90256
G1 X66.496 Y287.293 E51.9332
G1 X65.965 Y286.926 E51.95467
G1 X65.596 Y286.654 E51.96992
G1 X64.879 Y286.076 E52.00055
G1 X64.215 Y285.439 E52.03115
G1 X63.602 Y284.736 E52.06218
G1 X63.392 Y284.473 E52.07337
G1 X63.09 Y284.077 E52.08993
G1 X62.58 Y283.312 E52.12051
G1 X62.137 Y282.504 E52.15116
G1 X61.924 Y282.045 E52.16799
G1 X61.757 Y281.661 E52.18192
G1 X61.427 Y280.802 E52.21253
G1 X61.173 Y279.917 E52.24315
G1 X60.991 Y278.977 E52.27499
G1 X60.927 Y278.542 E52.28962
G1 X60.82 Y277.342 E52.32969
G1 X60.806 Y276.846 E52.34619
G1 X60.804 Y276.526 E52.35684
G1 X60.806 Y73.547 E59.10795
G1 X60.817 Y72.823 E59.13203
G1 X60.874 Y71.879 E59.16348
G1 X60.887 Y71.755 E59.16763
G1 X60.937 Y71.35 E59.1812
G1 X60.974 Y71.093 E59.18984
G1 X61.145 Y70.188 E59.22047
G1 X61.393 Y69.301 E59.2511
G1 X61.602 Y68.723 E59.27155
G1 X61.773 Y68.293 E59.28694
G1 X61.82 Y68.18 E59.29101
G1 X62.21 Y67.346 E59.32163
G1 X62.671 Y66.549 E59.35225
G1 X63.088 Y65.943 E59.37672
G1 X63.359 Y65.577 E59.39187
G1 X63.939 Y64.862 E59.42249
G1 X64.578 Y64.199 E59.45312
G0 F6000 X64.878 Y64.466
G1 F1200 X65.521 Y63.908 E59.48143
G1 X65.787 Y63.696 E59.49275
G1 X66.168 Y63.407 E59.50865
G1 X66.921 Y62.907 E59.53871
G1 X68.093 Y62.301 E59.5826
G1 X68.477 Y62.133 E59.59654
G1 X69.319 Y61.808 E59.62656
G1 X70.187 Y61.559 E59.65659
G1 X71.042 Y61.392 E59.68557
G1 X71.426 Y61.334 E59.69848
G1 X71.886 Y61.275 E59.71391
G1 X72.711 Y61.217 E59.74141
G1 X73.132 Y61.207 E59.75542
G1 X73.424 Y61.204 E59.76513
G1 X276.448 Y61.206 E66.51774
G1 X277.171 Y61.217 E66.54179
G1 X278.039 Y61.267 E66.57071
G1 X278.158 Y61.279 E66.57468
G1 X278.648 Y61.341 E66.59111
G1 X278.928 Y61.383 E66.60053
G1 X279.814 Y61.556 E66.63055
G1 X280.682 Y61.807 E66.66061
G1 X281.284 Y62.032 E66.68198
G1 X281.725 Y62.215 E66.69786
G1 X282.54 Y62.604 E66.7279
G1 X283.318 Y63.063 E66.75794
G1 X283.793 Y63.392 E66.77716
G1 X284.16 Y63.662 E66.79232
G1 X284.863 Y64.229 E66.82235
G1 X285.513 Y64.856 E66.85239
G1 X286.086 Y65.514 E66.88141
G1 X286.296 Y65.777 E66.89261
G1 X286.587 Y66.159 E66.90858
G1 X287.087 Y66.911 E66.93861
G1 X287.705 Y68.105 E66.98333
G1 X287.872 Y68.488 E66.99723
G1 X288.196 Y69.331 E67.02727
G1 X288.444 Y70.2 E67.05732
G1 X288.611 Y71.066 E67.08666
G1 X288.674 Y71.49 E67.10091
G1 X288.778 Y72.602 E67.13806
G1 X288.787 Y72.839 E67.14595
G1 X288.795 Y73.253 E67.15972
G1 X288.795 Y276.292 E73.91283
G1 X288.784 Y277.143 E73.94113
G1 X288.737 Y277.991 E73.96938
G1 X288.724 Y278.124 E73.97383
G1 X288.664 Y278.61 E73.99011
G1 X288.623 Y278.89 E73.99952
G1 X288.453 Y279.777 E74.02956
G1 X288.205 Y280.645 E74.05959
G1 X287.99 Y281.229 E74.08029
G1 X287.851 Y281.57 E74.09253
G1 X287.805 Y281.68 E74.0965
G1 X287.42 Y282.497 E74.12654
G1 X286.965 Y283.277 E74.15657
G1 X286.603 Y283.801 E74.17776
G1 X286.33 Y284.171 E74.19305
G1 X285.762 Y284.873 E74.22308
G1 X285.134 Y285.522 E74.25312
G1 X284.486 Y286.086 E74.28169
G1 X284.223 Y286.296 E74.29289
G1 X283.806 Y286.612 E74.31029
G1 X283.052 Y287.109 E74.34033
G1 X281.907 Y287.699 E74.38317
G1 X281.523 Y287.867 E74.39711
G1 X280.681 Y288.192 E74.42713
G1 X279.813 Y288.441 E74.45716
G1 X278.958 Y288.608 E74.48614
G1 X278.574 Y288.666 E74.49905
G1 X278.114 Y288.725 E74.51448
G1 X277.289 Y288.783 E74.54198
G1 X276.868 Y288.793 E74.55599
G1 X276.576 Y288.796 E74.5657
G1 X73.552 Y288.794 E81.31831
G1 X72.829 Y288.783 E81.34236
G1 X71.961 Y288.733 E81.37128
G1 X71.842 Y288.721 E81.37525
G1 X71.347 Y288.658 E81.39185
G1 X71.068 Y288.616 E81.40124
G1 X70.181 Y288.443 E81.43129
G1 X69.314 Y288.191 E81.46132
G1 X68.776 Y287.992 E81.4804
G1 X68.388 Y287.834 E81.49434
G1 X68.277 Y287.787 E81.49835
G1 X67.462 Y287.398 E81.52838
G1 X66.684 Y286.939 E81.55843
G1 X66.202 Y286.604 E81.57795
G1 X65.833 Y286.332 E81.5932
G1 X65.13 Y285.765 E81.62324
G1 X64.481 Y285.138 E81.65325
G1 X63.914 Y284.486 E81.68199
G1 X63.704 Y284.223 E81.69318
G1 X63.413 Y283.841 E81.70915
G1 X62.913 Y283.089 E81.73919
G1 X62.481 Y282.296 E81.76922
G1 X62.291 Y281.886 E81.78425
G1 X62.124 Y281.502 E81.79818
G1 X61.801 Y280.659 E81.82821
G1 X61.554 Y279.79 E81.85826
G1 X61.387 Y278.919 E81.88775
G1 X61.323 Y278.484 E81.90238
G1 X61.219 Y277.329 E81.94095
G1 X61.206 Y276.842 E81.95715
G1 X61.204 Y276.526 E81.96766
G1 X61.206 Y73.553 E88.71857
G1 X61.217 Y72.829 E88.74265
G1 X61.272 Y71.92 E88.77294
G1 X61.285 Y71.796 E88.77709
G1 X61.333 Y71.407 E88.79013
G1 X61.37 Y71.15 E88.79876
G1 X61.538 Y70.262 E88.82882
G1 X61.784 Y69.393 E88.85886
G1 X61.974 Y68.87 E88.87737
G1 X62.142 Y68.447 E88.8925
G1 X62.189 Y68.334 E88.89658
G1 X62.573 Y67.516 E88.92663
G1 X63.027 Y66.736 E88.95665
G1 X63.41 Y66.181 E88.97908
G1 X63.681 Y65.815 E88.99422
G1 X64.25 Y65.114 E89.02425
G1 X64.878 Y64.466 E89.05427
G1 F3600 E81.05427
;MESH:VTR300_Inntaksrist.stl
G0 F6000 X169.358 Y94.466
G0 X168.219 Y82.878
G0 X169.445 Y83.777
G0 X170.49 Y83.991
;TYPE:WALL-INNER
G1 F3600 E89.05427
G1 F1200 X170.491 Y83.99 E89.05431
G1 X170.5 Y83.522 E89.06988
G1 X171.058 Y83.743 E89.08984
G1 X171.08 Y83.685 E89.09191
G1 X171.117 Y83.592 E89.09524
G1 X171.168 Y83.67 E89.0958
G1 X171.211 Y83.735 E89.09651
G1 X171.68 Y84.027 E89.11489
G1 X172.595 Y84.183 E89.14576
G1 X172.824 Y84.222 E89.15349
G1 X172.825 Y83.99 E89.15826
G1 X172.826 Y83.989 E89.15831
G1 X172.83 Y83.682 E89.16852
G1 X173.264 Y83.896 E89.18461
G1 X173.276 Y83.902 E89.18506
G1 X173.368 Y83.699 E89.18978
G1 X173.428 Y83.566 E89.194
G1 X173.524 Y83.668 E89.1955
G1 X173.69 Y83.844 E89.20146
G1 X174.189 Y84.066 E89.21963
G1 X174.618 Y84.118 E89.234
G1 X175.126 Y84.038 E89.25111
G1 X175.59 Y83.774 E89.26886
G1 X175.717 Y83.615 E89.27563
G1 X175.725 Y83.606 E89.27603
G1 X175.738 Y83.631
G1 X176.217 Y83.976 E89.29566
G1 X176.644 Y84.076 E89.31025
G1 X177.064 Y84.1 E89.32424
G1 X182.156 Y84.1 E89.4936
G1 X182.511 Y83.146 E89.52746
G1 X182.701 Y82.634 E89.54562
G1 X182.885 Y83.149 E89.55526
G1 X183.225 Y84.1 E89.58885
G1 X184.663 Y84.1 E89.63668
G1 X184.664 Y84.1 E89.63671
G1 X184.954 Y84.1 E89.64636
G1 X184.849 Y83.829 E89.65203
G1 X183.326 Y79.9 E89.79219
G1 X182.098 Y79.9 E89.83303
G1 X181.207 Y82.175 E89.91429
G1 X181.062 Y82.546 E89.92754
G1 X180.814 Y82.546 E89.93579
G1 X180.814 Y82.147 E89.9466
G1 X180.814 Y79.9 E90.02133
G1 X179.217 Y79.9 E90.07445
G1 X179.217 Y82.546 E90.16245
G1 X179.011 Y82.546 E90.16931
G1 X179.011 Y79.9 E90.21474
G1 X177.414 Y79.9 E90.26786
G1 X177.414 Y80.537 E90.28905
G1 X177.414 Y80.782 E90.29719
G1 X177.414 Y81.151 E90.30947
G1 X177.158 Y80.782 E90.31558
G1 X177.027 Y80.576 E90.3223
G1 X176.597 Y79.9 E90.34895
G1 X175.412 Y79.9 E90.38836
G1 X175.336 Y80.039 E90.39363
G1 X175.167 Y79.938 E90.40018
G1 X174.598 Y79.839 E90.41939
G1 X173.969 Y79.941 E90.44058
G1 X173.44 Y80.276 E90.46141
G1 X173.372 Y80.358 E90.46495
G1 X172.92 Y79.999 E90.48415
G1 X172.563 Y79.877 E90.4967
G1 X171.783 Y79.806 E90.52275
G1 X171.698 Y79.704 E90.52717
G1 X171.685 Y79.719
G1 X171.087 Y80.398 E90.55726
G1 X171.074 Y80.413 E90.55792
G1 X171.041 Y80.358 E90.55894
G1 X170.589 Y79.999 E90.57814
G1 X170.232 Y79.877 E90.59069
G1 X169.32 Y79.794 E90.62115
G1 X169.3 Y79.792 E90.62182
G1 X169.3 Y80.012 E90.62645
G1 X169.191 Y79.909 E90.62688
G1 X169.056 Y79.783 E90.63203
G1 X169.015 Y79.862 E90.6321
G1 X168.462 Y80.922 E90.67187
G1 X168.352 Y81.423 E90.68893
G1 X168.322 Y81.974 E90.70728
G1 X168.338 Y82.406 E90.72166
G1 X168.347 Y82.48 E90.72414
G1 X168.405 Y82.832 E90.73601
G1 X168.524 Y83.195 E90.74871
G1 X168.882 Y83.736 E90.77029
G1 X169.35 Y84.027 E90.78862
G1 X170.26 Y84.183 E90.81933
G1 X170.488 Y84.222 E90.82702
G1 X170.49 Y83.991 E90.83178
G0 F6000 X170.096 Y83.749
;TYPE:WALL-OUTER
G1 F1200 X170.108 Y83.053 E90.85493
G1 X169.766 Y82.964 E90.86668
G1 X169.651 Y82.857 E90.87191
G1 X169.542 Y82.557 E90.88252
G1 X169.502 Y81.976 E90.90189
G1 X169.542 Y81.403 E90.921
G1 X169.615 Y81.151 E90.92972
G1 X169.728 Y80.961 E90.93708
G1 X169.167 Y80.435 E90.96265
G1 X168.841 Y81.06 E90.9861
G1 X168.75 Y81.477 E91.00029
G1 X168.722 Y81.978 E91.01698
G1 X168.737 Y82.374 E91.03016
G1 X168.743 Y82.423 E91.03181
G1 X168.795 Y82.737 E91.04239
G1 X168.887 Y83.019 E91.05226
G1 X169.167 Y83.442 E91.06913
G1 X169.495 Y83.646 E91.08198
G1 X170.096 Y83.749 E91.10226
G1 F3600 E83.10226
G0 F6000 X170.063 Y83.944
G0 X171.067 Y82.88
G0 X171.063 Y81.805
G1 F3600 E91.10226
G1 F1200 X171.003 Y81.215 E91.12198
G1 X170.897 Y80.897 E91.13313
G1 X170.735 Y80.626 E91.14363
G1 X170.394 Y80.355 E91.15812
G1 X170.148 Y80.271 E91.16677
G1 X169.7 Y80.23 E91.18173
G1 X169.7 Y80.907 E91.20425
G1 X170.034 Y80.994 E91.21573
G1 X170.151 Y81.104 E91.22107
G1 X170.258 Y81.401 E91.23157
G1 X170.299 Y81.98 E91.25087
G1 X170.275 Y82.443 E91.26629
G1 X170.156 Y82.957 E91.28384
